X:1
T:Blessèd Be the Fountain
T:Blessèd Be the Fountain
T:Henry Southwick Perkins
T:Eden Reeder Latta, 1873
T:Public Domain Courtesy of the Cyber Hymnal™
T:Public Domain Courtesy of the Cyber Hymnal™
C:Henry Southwick Perkins
Z:Public Domain
Z:Courtesy of the Cyber Hymnal™
%%score ( 1 2 ) ( 3 4 )
L:1/8
Q:1/4=100
M:4/4
K:D
V:1 treble 
V:2 treble 
V:3 bass 
V:4 bass 
V:1
 [DF]>[DF] [DF]>[D^E] [DF]2 [DF]>[=EG] | [FA]6 [FA]>[DF] | [CE]2 [CE]2 [DF]2 [EG]>[DF] | [CE]6 z2 | %4
w: 1.~Bless- èd be the fount- ain of|blood, To a|world of sin- ners re-|vealed;|
w: 2.~Thorn- y was the crown that He|wore, And the|cross His bo- dy o’er-|came;|
w: 3.~Fa- ther, I have wan- dered from|Thee, Oft- en|has my heart gone a-|stray;|
 [DF]>[DF] [DF]>[D^E] [DF]2 [DF]>[=EG] | [FA]6 [FA]>[DF] | [DE]2 [DE]2 [CE]2 [CF]>[CE] | D6 z2 | %8
w: Bless- èd be the dear Son of|God; On- ly|by His stripes we are|healed.|
w: Griev- ous were the sor- rows He|bore, But He|suf- fered Thus not in|vain.|
w: Crim- son do my sins seem to|me— Wa- ter|can- not wash them a-|way.|
 [GB]>[GB] [GB]>[GB] [GB]2 [GB]>[EG] | ([DF]4 [FA]2) z2 | [GB]>[GB] [GB]>[GB] (Bd)[Ec][DB] | %11
w: Tho’ I’ve wan- dered far from His|fold, *|Bring- ing to my heart * pain and|
w: May I to that fount- ain be|led, *|Made to cleanse my sins * here be-|
w: Je- sus, to the fount- ain of|Thine, *|Lean- ing on Thy prom- * ise, I|
 (A4 G2) z2 | [DF]>[DF] [DF]>[D^E] [DF]2 [DF]>[=EG] | [FA]6 [DF]2 | %14
w: woe, *|Wash me in the blood of the|Lamb, And|
w: low; *|Wash me in the blood that He|shed, And|
w: go; *|Cleanse me by Thy wash- ing di-|vine, And|
 [DE]2 [DE]>[DE] [CE]2 [CF]>[CE] | D6 z2 ||"^Refrain" A4- A>F A>d | c4- [Gc]2 z2 | G4- G>E G>B | %19
w: I shall be whit- er than|snow.||||
w: I shall be whit- er than|snow.|Whit- * er than the|snow, Whit-|* * er than the|
w: I shall be whit- er than|snow.||||
 A4- [FA]2 z2 | [Fd]>[Fd] [Fd]>[Fd] [Ad]2 [Ad]>[Ac] | B4- [DB]2 [GB]2 | %22
w: |||
w: snow, Wash|* me in the blood of the|Lamb, And I|
w: |||
 [FA]2 [DF]>D [DE]2 [CF]>[CE] | D4- [A,D]2 z2 |] %24
w: ||
w: * shall be whit- er than|snow. *|
w: ||
V:2
 x8 | x8 | x8 | x8 | x8 | x8 | x8 | D6 x2 | x8 | x8 | x4 ^G2 x2 | C6 x2 | x8 | x8 | x8 | D6 x2 || %16
 (FFF>F F2) x2 | GGG>G x4 | (EEE>E E2) x2 | FFF>F x4 | x8 | G2 G>G x4 | x7/2 D/ x4 | D2 B,2 x4 |] %24
V:3
 [D,A,]>[D,A,] [D,A,]>[D,^G,] [D,A,]2 [D,A,]>[D,A,] | [D,D]6 [D,D]>[D,A,] | %2
w: ~ ~ ~ ~ ~ ~ ~|~ ~ ~|
 [A,,A,]2 [A,,A,]2 [D,A,]2 [C,A,]>[D,A,] | [A,,A,]6 z2 | %4
w: ~ ~ ~ ~ ~|~|
 [D,A,]>[D,A,] [D,A,]>[D,^G,] [D,A,]2 [D,A,]>[D,A,] | [D,D]6 [D,A,]>[D,A,] | %6
w: ~ ~ ~ ~ ~ ~ ~|~ ~ ~|
 [G,B,]2 [G,B,]2 A,2 [A,,A,]>[A,,G,] | [D,F,]6 z2 | [G,D]>[G,D] [G,D]>[G,D] [G,D]2 [G,D]>[G,B,] | %9
w: ~ ~ ~ ~ ~|~|~ ~ ~ ~ ~ ~ ~|
 (A,4 D2) z2 | [G,D]>[G,D] [G,D]>[G,D] (DB,)[E,A,][E,^G,] | [A,,A,]6 z2 | %12
w: ~ *|~ ~ ~ ~ ~ * ~ ~|~|
 [D,A,]>[D,A,] [D,A,]>[D,^G,] [D,A,]2 [D,A,]>[D,A,] | [D,D]6 [D,A,]2 | %14
w: ~ ~ ~ ~ ~ ~ ~|~ ~|
 [G,B,]2 [G,B,]>[G,B,] A,2 [A,,A,]>[A,,G,] | [D,F,]6 z2 || [D,D][D,D] [D,D]>[D,D] [D,D]2 z2 | %17
w: ~ ~ ~ ~ ~ ~|~|Whit- er than the snow,|
 [A,,E][A,,E] [A,,E]>[A,,E] [A,,E]2 z2 | [A,C][A,C] [A,C]>[A,C] [A,C]2 z2 | %19
w: whit- er than the snow,|Whit- er than the snow,|
 [D,D][D,D] [D,D]>[D,D] [D,D]2 z2 | [D,A,]>[D,A,] [D,A,]>[D,A,] [F,A,]2 [F,D]>[F,D] | %21
w: whit- er than the snow,|~ ~ ~ ~ ~ ~ ~|
 [G,D]2 [G,D]>[G,D] [G,B,]2 [G,,D]2 | [A,,D]2 [A,,A,]>[A,,F,] [A,,A,]2 [A,,A,]>[A,,G,] | %23
w: ~ of the Lamb, ~|~ ~ ~ ~ ~ ~|
 F,2 G,2 [D,F,]2 z2 |] %24
w: ~ than~snow. *|
V:4
 x8 | x8 | x8 | x8 | x8 | x8 | x4 A,2 x2 | x8 | x8 | D,6 x2 | x4 E,2 x2 | x8 | x8 | x8 | %14
 x4 A,2 x2 | x8 || x8 | x8 | x8 | x8 | x8 | x8 | x8 | D,4- x4 |] %24

